X:1
T:Hare in the Corn -- Jig
R:jig
B:Ryan's Mammoth Collection
N: 84 432
Z: Contributed by Ray Davies,  ray:davies99.freeserve.co.uk
M:6/8
L:1/8
K:D
uA|\
(BA).B =c2A | (BA).B =c2A | BdB AFD | (EF).E E2c |
(BA).B =c2A | (BA).B =c2A | BdB AFA | (DE).D D2 :|
|:uG|\
F2A (AF).A | BGB AFA | BdB AFD | EFE E2G |
F2A (AF).A | BGB AFA | BdB AFA | (DE).D D2 :|
|:ug|\
fdd edd | (fd).d d2A | BdB AFD | (EF).E E2g |
fdd edd | fdB AFA | DFA deg | fdd d2 :|
